X: 2
T: Paddy Fahey's
R: jig
M: 6/8
L: 1/8
K: Dmix
|:A|DFA d2e|dcA ~G3|AFD c2B|edc B/2c/2dA|
DFA d2e|dcA ~G3|Adc AGE|EDD D2:|
|:A|DFA fed|cAG AAB|c2B edc|B/2c/2dA ~G3|
Add fed|cAG EFG|Adc AGE|EDD D2:|


Tune 124	Setting 124

